24x24/apps/step.svg

<svg height="24" width="24" xmlns="http://www.w3.org/2000/svg"><path d="m3 4h19v17h-19z" fill="#41ab93"/><path d="m17 3h1v10h-1zm-5 0h1v10h-1zm-5 0h1v10h-1z" fill="#f4f4f7"/><circle cx="7.5" cy="15" opacity=".1" r="2.5"/><circle cx="7.5" cy="14.5" fill="#17191e" r="2.5"/><path d="m4.002 5v.5h16.998v-.5zm-2 16v.5h20.998v-.5h-19z" opacity=".2"/><circle cx="12.5" cy="15" opacity=".1" r="2.5"/><path d="m3.002 3c-.554 0-1.035.447-1 1v17h2v-16h16.998v16h2v-17c0-.554-.446-1-1-1z" fill="#4f4f4f"/><circle cx="17.5" cy="15" opacity=".1" r="2.5"/><circle cx="12.5" cy="14.5" fill="#17191e" r="2.5"/><circle cx="17.5" cy="14.5" fill="#17191e" r="2.5"/><path d="m3.002 3c-.554 0-1.035.447-1 1v.5c-.035-.553.446-1 1-1h18.998c.554 0 1 .446 1 1v-.5c0-.554-.446-1-1-1z" fill="#f4f4f7" opacity=".1"/></svg>

<svg xmlns="http://www.w3.org/2000/svg" width="24" height="24" version="1"><path style="fill:#41ab93" d="M3 4h19v17H3z"/><path style="fill:#f4f4f7" d="M17 3h1v10h-1zM12 3h1v10h-1zM7 3h1v10H7z"/><circle style="opacity:.1" cx="7.5" cy="15" r="2.5"/><circle style="fill:#17191e" cx="7.5" cy="14.5" r="2.5"/><path style="opacity:.2" d="M4.002 5v.5H21V5zM2.002 21v.5H23V21H4z"/><circle style="opacity:.1" cx="12.5" cy="15" r="2.5"/><path style="fill:#4f4f4f" d="M3.002 3c-.554 0-1.035.447-1 1v17h2V5H21v16h2V4c0-.554-.446-1-1-1z"/><circle style="opacity:.1" cx="17.5" cy="15" r="2.5"/><circle style="fill:#17191e" cx="12.5" cy="14.5" r="2.5"/><circle style="fill:#17191e" cx="17.5" cy="14.5" r="2.5"/><path style="opacity:.1;fill:#f4f4f7" d="M3.002 3c-.554 0-1.035.447-1 1v.5c-.035-.553.446-1 1-1H22c.554 0 1 .446 1 1V4c0-.554-.446-1-1-1z"/></svg>
